X:133
M:2/4
L:1/8
K:D
|:A|B G2 (e/f/)|g B2 G|A F2 (d/e/)|f A2 G/F/|(3G/A/B/ (3 A/B/c/|(3B/c/d (3e/f/g/|fdec d2 D:|

